#src/img/icons/delivery.svg

<svg width="512" height="512" viewBox="0 0 512 512" fill="none" xmlns="http://www.w3.org/2000/svg">
<g clip-path="url(#clip0)" filter="url(#filter0_i)">
<path d="M343.893 41.152L111.552 160.107L19.2 114.667L247.445 1.96265C252.565 -0.640016 258.709 -0.640016 264.085 1.96265L343.893 41.152Z" fill="white"/>
<path d="M492.544 114.667L256.128 231.787L167.595 188.16L154.795 181.653L387.392 62.72L400.192 69.2053L492.544 114.667Z" fill="white"/>
<path d="M237.184 265.536L236.928 512L10.496 393.835C4.096 390.464 0 383.701 0 376.427V148.416L95.9573 195.691V278.805C95.9573 289.451 104.661 298.283 115.157 298.283C125.653 298.283 134.357 289.451 134.357 278.805V214.912L147.157 221.141L237.184 265.536Z" fill="white"/>
<path d="M511.744 148.672L275.584 265.28L275.328 511.744L512 388.16L511.744 148.672Z" fill="white"/>
</g>
<defs>
<filter id="filter0_i" x="-9" y="0" width="521" height="512" filterUnits="userSpaceOnUse" color-interpolation-filters="sRGB">
<feFlood flood-opacity="0" result="BackgroundImageFix"/>
<feBlend mode="normal" in="SourceGraphic" in2="BackgroundImageFix" result="shape"/>
<feColorMatrix in="SourceAlpha" type="matrix" values="0 0 0 0 0 0 0 0 0 0 0 0 0 0 0 0 0 0 127 0" result="hardAlpha"/>
<feOffset dx="-9"/>
<feGaussianBlur stdDeviation="4.5"/>
<feComposite in2="hardAlpha" operator="arithmetic" k2="-1" k3="1"/>
<feColorMatrix type="matrix" values="0 0 0 0 0 0 0 0 0 0 0 0 0 0 0 0 0 0 0.25 0"/>
<feBlend mode="normal" in2="shape" result="effect1_innerShadow"/>
</filter>
<clipPath id="clip0">
<rect width="512" height="512" fill="white"/>
</clipPath>
</defs>
</svg>

<?xml version="1.0" encoding="utf-8"?>
<!-- Generator: Adobe Illustrator 24.1.2, SVG Export Plug-In . SVG Version: 6.00 Build 0)  -->
<svg version="1.1" id="Слой_1" xmlns="http://www.w3.org/2000/svg" xmlns:xlink="http://www.w3.org/1999/xlink" x="0px" y="0px"
	 viewBox="0 0 512 512" style="enable-background:new 0 0 512 512;" xml:space="preserve">
<style type="text/css">
	.st0{fill:#FFFFFF;}
</style>
<path class="st0" d="M343.9,41.2l-232.3,119l-92.4-45.4L247.4,2c5.1-2.6,11.3-2.6,16.6,0L343.9,41.2z"/>
<path class="st0" d="M492.5,114.7L256.1,231.8l-88.5-43.6l-12.8-6.5L387.4,62.7l12.8,6.5L492.5,114.7z"/>
<path class="st0" d="M237.2,265.5L236.9,512L10.5,393.8C4.1,390.5,0,383.7,0,376.4v-228l96,47.3v83.1c0,10.6,8.7,19.5,19.2,19.5
	s19.2-8.8,19.2-19.5v-63.9l12.8,6.2L237.2,265.5z"/>
<path class="st0" d="M511.7,148.7L275.6,265.3l-0.3,246.5L512,388.2L511.7,148.7z"/>
</svg>
